X: 1151
T:Blooming Meadows (A65)
N: page A65
N: heptatonic
S:Trad, arr. Paddy O'Brien
R:jig
E:10
I:speed 350
M:6/8
K:G
G1/2E1/2|"G"~D2G ~G2A|~B2d "C"cAG|\
"D"~F2D DED|~F2G AGF|DB,D ~G2A|
BAG ABc|ded "C"cAF|"G"GAG G2:|\
B1/2d1/2|~g2d "D"def|"G"~g2a bag|
"D"~f2d d^cd|~f2g afd|1 "G"~g2d "D"def|\
"G"~g2a bag|"D"fed "C"cAF|"G"GAG G2:|2
"G" ~g2e fed|edB "C"cde|"D"fed cAF|"G"G3 G2|:\
A|"G"~B2G "C"~c2A|"G"~B2d "C"cAG|
"D"~F2D DED|~F2G AFD|"G"~B2G "C"~c2A|\
"G"BAG "C"ABc|"D"ded "C"cAF|"G"G3 G2:|
